brandFactory_export/1.Light/Ajustes_1Light.svg

<?xml version="1.0" encoding="UTF-8"?>
<svg width="24px" height="24px" viewBox="0 0 24 24" version="1.1" xmlns="http://www.w3.org/2000/svg" xmlns:xlink="http://www.w3.org/1999/xlink">
    <title>1.Light/Ajustes_1Light</title>
    <g id="Symbols" stroke="none" stroke-width="1" fill="none" fill-rule="evenodd">
        <g id="1.Light/Ajustes_1Light" fill="#5CB615" fill-rule="nonzero">
            <path d="M12.7462185,-7.99360578e-14 C13.2201681,-7.99360578e-14 13.6033613,0.383193277 13.6033613,0.857142857 L13.6033613,3.29411765 C13.6067227,3.39831933 13.7210084,3.47563025 13.8352941,3.49579832 L13.8386555,3.49579832 C14.8201681,3.64705882 15.6504202,3.90252101 16.4537815,4.30252101 C16.5109244,4.32941176 16.6487395,4.38319328 16.7428571,4.29579832 L16.7462185,4.29243697 L18.5210084,2.51764706 C18.8638655,2.17815126 19.4151261,2.17815126 19.7546218,2.51764706 L21.1159664,3.8789916 C21.4554622,4.22184874 21.4554622,4.77310924 21.1159664,5.11260504 L19.3411765,6.88739496 L19.3378151,6.8907563 C19.2705882,6.96470588 19.2840336,7.08571429 19.3277311,7.17310924 L19.3310924,7.17647059 C19.7176471,7.9394958 19.9865546,8.82016807 20.1378151,9.79831933 C20.1546218,9.91260504 20.2386555,10.0302521 20.3428571,10.0302521 L22.7731092,10.0302521 C23.2470588,10.0302521 23.6302521,10.4134454 23.6302521,10.887395 L23.6302521,12.7495798 C23.6302521,13.2235294 23.2470588,13.6067227 22.7731092,13.6067227 L20.3428571,13.6067227 C20.2352941,13.6067227 20.1546218,13.7243697 20.1378151,13.8386555 C19.9865546,14.8168067 19.7142857,15.697479 19.3310924,16.4605042 L19.3277311,16.4638655 C19.2806723,16.5512605 19.2672269,16.6722689 19.3378151,16.7462185 L19.3411765,16.7495798 L21.1159664,18.5243697 C21.4554622,18.8672269 21.4554622,19.4184874 21.1159664,19.7579832 L19.7546218,21.1193277 C19.4117647,21.4588235 18.8605042,21.4588235 18.5210084,21.1193277 L16.7462185,19.3445378 L16.7428571,19.3378151 C16.6487395,19.2504202 16.5109244,19.3042017 16.4537815,19.3310924 C15.6504202,19.7277311 14.8201681,19.9865546 13.8386555,20.1378151 L13.8352941,20.1378151 C13.7243697,20.1546218 13.6067227,20.2352941 13.6033613,20.3394958 L13.6033613,22.7764706 C13.6,23.2470588 13.2168067,23.6268908 12.7462185,23.6268908 L10.8840336,23.6268908 C10.410084,23.6268908 10.0268908,23.2436975 10.0268908,22.7697479 L10.0268908,20.3394958 C10.0268908,20.2319328 9.9092437,20.1512605 9.79495798,20.1344538 C8.81680672,19.9831933 7.93613445,19.7109244 7.17310924,19.3277311 L7.1697479,19.3243697 C7.08235294,19.2773109 6.96134454,19.2638655 6.88739496,19.3344538 L6.88403361,19.3378151 L5.1092437,21.1159664 C4.76638655,21.4554622 4.21512605,21.4554622 3.87563025,21.1159664 L2.51428571,19.7546218 C2.17478992,19.4117647 2.17478992,18.8605042 2.51428571,18.5210084 L4.28907563,16.7462185 L4.29579832,16.7428571 C4.37647059,16.6554622 4.34621849,16.5277311 4.31596639,16.4806723 C4.04369748,16.0369748 3.68403361,15.0487395 3.49579832,13.8352941 C3.4789916,13.7277311 3.39159664,13.6067227 3.29411765,13.6033613 L0.857142857,13.6033613 C0.383193277,13.6 -2.00559569e-10,13.2168067 -2.00559569e-10,12.7462185 L-2.00559569e-10,10.8840336 C-2.00559569e-10,10.410084 0.383193277,10.0268908 0.857142857,10.0268908 L3.2907563,10.0268908 C3.38823529,10.0235294 3.47563025,9.90252101 3.49243697,9.79495798 C3.62689076,8.9210084 3.93613445,7.76470588 4.31260504,7.14957983 C4.3394958,7.10252101 4.37310924,6.97478992 4.29243697,6.88739496 L2.51428571,5.1092437 C2.17478992,4.76638655 2.17478992,4.21512605 2.51428571,3.87563025 L3.87563025,2.51428571 C4.21848739,2.17478992 4.7697479,2.17478992 5.1092437,2.51428571 L6.88739496,4.29243697 C6.96134454,4.36302521 7.08235294,4.34621849 7.1697479,4.30252101 L7.17310924,4.29915966 C7.93613445,3.91596639 8.81680672,3.64369748 9.79495798,3.49243697 C9.9092437,3.47563025 10.0268908,3.39159664 10.0268908,3.28739496 L10.0268908,0.857142857 C10.0268908,0.383193277 10.410084,0.00336134454 10.8840336,-7.99360578e-14 L12.7462185,-7.99360578e-14 Z M12.7495798,0.665546218 L10.887395,0.665546218 C10.7865546,0.665546218 10.7058824,0.749579832 10.702521,0.850420168 L10.702521,3.28067227 C10.702521,3.71428571 10.3663866,4.08067227 9.89915966,4.1512605 C8.99159664,4.29243697 8.17815126,4.54117647 7.4789916,4.89411765 C7.1092437,5.08571429 6.6789916,5.03193277 6.41008403,4.75966387 L6.40336134,4.75294118 L4.63865546,2.98487395 C4.56134454,2.90756303 4.43361345,2.90756303 4.35294118,2.98487395 L2.99159664,4.34621849 C2.91428571,4.42689076 2.91428571,4.5512605 2.99159664,4.63193277 L4.76638655,6.40672269 C5.08907563,6.72941176 5.07226891,7.2 4.88739496,7.49915966 C4.60504202,7.95630252 4.30588235,8.94117647 4.15798319,9.89579832 C4.09747899,10.2823529 3.77142857,10.6957983 3.28739496,10.6957983 L0.857142857,10.6957983 C0.756302521,10.6957983 0.675630252,10.7798319 0.672268907,10.8806723 L0.672268907,12.7428571 C0.672268907,12.8436975 0.756302521,12.9243697 0.857142857,12.9277311 L3.28739496,12.9277311 C3.65042017,12.9277311 4.07731092,13.210084 4.15798319,13.7277311 C4.30588235,14.6823529 4.60504202,15.6705882 4.88739496,16.1243697 C5.07226891,16.4235294 5.08907563,16.8941176 4.76638655,17.2168067 L2.99159664,18.9915966 C2.91428571,19.0722689 2.91428571,19.1966387 2.99159664,19.2773109 L4.35294118,20.6386555 C4.4302521,20.7159664 4.55798319,20.7159664 4.63865546,20.6386555 L6.41344538,18.8638655 C6.6789916,18.5915966 7.1092437,18.5378151 7.4789916,18.7294118 C8.17815126,19.0823529 8.99159664,19.3310924 9.89915966,19.4722689 C10.3630252,19.5428571 10.702521,19.9092437 10.702521,20.3428571 L10.702521,22.7731092 C10.702521,22.8739496 10.7865546,22.9546218 10.887395,22.9579832 L12.7495798,22.9579832 C12.8504202,22.9579832 12.9310924,22.8739496 12.9344538,22.7731092 L12.9344538,20.3428571 C12.9344538,19.912605 13.2705882,19.5462185 13.7310924,19.4722689 L13.7344538,19.4722689 C14.6453782,19.3310924 15.4151261,19.0957983 16.1579832,18.7294118 C16.4571429,18.5815126 16.897479,18.5378151 17.2235294,18.8672269 L17.2302521,18.8739496 L18.9983193,20.6386555 C19.0756303,20.7159664 19.2033613,20.7159664 19.2840336,20.6386555 L20.6453782,19.2773109 C20.7226891,19.1966387 20.7226891,19.0722689 20.6453782,18.9915966 L18.8705882,17.2168067 C18.5983193,16.9445378 18.5445378,16.5142857 18.7361345,16.1478992 C19.0890756,15.4487395 19.3378151,14.6352941 19.4789916,13.7277311 C19.5495798,13.2638655 19.9159664,12.9243697 20.3495798,12.9243697 L22.7798319,12.9243697 C22.8806723,12.9243697 22.9613445,12.8403361 22.9647059,12.7394958 L22.9647059,10.8773109 C22.9647059,10.7764706 22.8806723,10.6957983 22.7798319,10.692437 L20.3495798,10.692437 C19.9159664,10.692437 19.5495798,10.3563025 19.4789916,9.88907563 C19.3378151,8.98151261 19.0890756,8.16806723 18.7361345,7.46890756 C18.5445378,7.09915966 18.5983193,6.67226891 18.8705882,6.4 L18.8773109,6.39327731 L20.6453782,4.62857143 C20.7226891,4.54789916 20.7226891,4.42352941 20.6453782,4.34285714 L19.2840336,2.98151261 C19.2067227,2.90420168 19.0789916,2.90420168 18.9983193,2.98151261 L17.2235294,4.75630252 C16.897479,5.08571429 16.4571429,5.04201681 16.1579832,4.89411765 C15.4184874,4.52773109 14.6453782,4.29243697 13.7344538,4.1512605 L13.7310924,4.1512605 C13.2672269,4.07731092 12.9344538,3.71428571 12.9344538,3.28067227 L12.9344538,0.850420168 C12.9344538,0.749579832 12.8504202,0.668907563 12.7495798,0.665546218 Z M11.8151261,7.40168067 C13.2134454,7.40168067 14.3058824,7.76806723 15.0521008,8.48739496 C15.8285714,9.23697479 16.2218487,10.3529412 16.2218487,11.8117647 C16.2218487,13.2705882 15.8285714,14.3865546 15.0521008,15.1361345 C14.302521,15.8588235 13.2134454,16.2218487 11.8151261,16.2218487 C10.4134454,16.2218487 9.32436975,15.8554622 8.57815126,15.1361345 C7.80168067,14.3865546 7.40840336,13.2705882 7.40840336,11.8117647 C7.40840336,10.3529412 7.80168067,9.23697479 8.57815126,8.48739496 C9.32773109,7.76806723 10.4168067,7.40168067 11.8151261,7.40168067 Z M11.8151261,8.07731092 C10.594958,8.07731092 9.6605042,8.37983193 9.04201681,8.97478992 C8.40336134,9.59327731 8.07731092,10.5478992 8.07731092,11.8151261 C8.07731092,13.0823529 8.40336134,14.0369748 9.04201681,14.6554622 C9.6605042,15.2504202 10.5915966,15.5529412 11.8151261,15.5529412 C13.0386555,15.5529412 13.9697479,15.2504202 14.5882353,14.6554622 C15.2268908,14.0369748 15.5529412,13.0823529 15.5529412,11.8151261 C15.5529412,10.5478992 15.2302521,9.59327731 14.5882353,8.97815126 C13.9663866,8.37983193 13.0352941,8.07731092 11.8151261,8.07731092 Z" id="Ajustes_1Light"></path>
        </g>
    </g>
</svg>

<svg width="24" height="24" viewBox="0 0 24 24" xmlns="http://www.w3.org/2000/svg"><path d="M12.746 0c.474 0 .857.383.857.857v2.437c.004.104.118.182.232.202h.004c.981.151 1.811.407 2.615.807.057.026.195.08.289-.007l.003-.004 1.775-1.774a.874.874 0 011.234 0l1.361 1.361c.34.343.34.894 0 1.234l-1.775 1.774-.003.004c-.067.074-.054.195-.01.282l.003.003c.387.763.656 1.644.807 2.622.017.115.1.232.205.232h2.43c.474 0 .857.383.857.857v1.863a.856.856 0 01-.857.857h-2.43c-.108 0-.188.117-.205.232-.151.978-.424 1.858-.807 2.622l-.003.003c-.047.087-.06.208.01.282l.003.004 1.775 1.774c.34.343.34.894 0 1.234l-1.361 1.361a.874.874 0 01-1.234 0l-1.775-1.774-.003-.007c-.094-.088-.232-.034-.29-.007a8.747 8.747 0 01-2.614.807h-.004c-.11.017-.228.097-.232.201v2.437a.857.857 0 01-.857.85h-1.862a.856.856 0 01-.857-.856v-2.43c0-.108-.118-.189-.232-.206-.978-.15-1.859-.423-2.622-.806l-.003-.004c-.088-.047-.209-.06-.283.01l-.003.004-1.775 1.778a.874.874 0 01-1.233 0l-1.362-1.361a.874.874 0 010-1.234l1.775-1.775.007-.003c.08-.088.05-.215.02-.262-.272-.444-.632-1.432-.82-2.646-.017-.107-.104-.228-.202-.232H.857A.86.86 0 010 12.746v-1.862c0-.474.383-.857.857-.857h2.434c.097-.003.185-.124.201-.232.135-.874.444-2.03.82-2.645.027-.047.061-.175-.02-.263L2.514 5.11a.874.874 0 010-1.233l1.362-1.362a.874.874 0 011.233 0l1.778 1.778c.074.071.195.054.283.01l.003-.003c.763-.383 1.644-.655 2.622-.807.114-.016.232-.1.232-.205V.857c0-.474.383-.854.857-.857h1.862zm.004.666h-1.863c-.1 0-.181.084-.184.184v2.43c0 .434-.337.8-.804.871-.907.141-1.72.39-2.42.743-.37.192-.8.138-1.069-.134l-.007-.007L4.64 2.985a.205.205 0 00-.286 0L2.992 4.346a.205.205 0 000 .286l1.774 1.775c.323.322.306.793.121 1.092-.282.457-.581 1.442-.729 2.397-.06.386-.387.8-.87.8H.857c-.102 0-.182.084-.186.185v1.862c0 .1.084.181.185.185h2.43c.363 0 .79.282.871.8.148.954.447 1.943.73 2.396.184.3.201.77-.122 1.093l-1.774 1.775a.205.205 0 000 .285l1.36 1.362a.205.205 0 00.287 0l1.774-1.775c.266-.272.696-.326 1.066-.135.7.353 1.513.602 2.42.743.464.07.804.437.804.87v2.431c0 .1.084.182.184.185h1.863c.1 0 .181-.084.184-.185v-2.43c0-.43.337-.797.797-.87h.003c.911-.142 1.681-.377 2.424-.744.3-.147.74-.191 1.066.138l.006.007 1.768 1.765a.205.205 0 00.286 0l1.361-1.362a.205.205 0 000-.285l-1.774-1.775c-.273-.272-.326-.703-.135-1.07.353-.698.602-1.512.743-2.42.07-.463.437-.803.87-.803h2.43c.102 0 .182-.084.186-.185v-1.862c0-.1-.084-.181-.185-.185h-2.43c-.434 0-.8-.336-.871-.803-.141-.907-.39-1.72-.743-2.42-.191-.37-.138-.797.135-1.069l.006-.007 1.768-1.764a.205.205 0 000-.286l-1.361-1.361a.205.205 0 00-.286 0l-1.774 1.774c-.327.33-.767.286-1.066.138-.74-.366-1.513-.602-2.424-.743h-.003c-.464-.074-.797-.437-.797-.87V.85c0-.101-.084-.182-.184-.185zm-.935 6.736c1.398 0 2.49.366 3.237 1.085.777.75 1.17 1.866 1.17 3.325s-.393 2.575-1.17 3.324c-.75.723-1.839 1.086-3.237 1.086-1.402 0-2.49-.367-3.237-1.086-.776-.75-1.17-1.865-1.17-3.324 0-1.46.394-2.575 1.17-3.325.75-.719 1.839-1.085 3.237-1.085zm0 .675c-1.22 0-2.154.303-2.773.898-.639.618-.965 1.573-.965 2.84s.326 2.222.965 2.84c.619.595 1.55.898 2.773.898 1.224 0 2.155-.303 2.773-.898.639-.618.965-1.573.965-2.84s-.323-2.222-.965-2.837c-.622-.598-1.553-.9-2.773-.9z" fill="#5CB615" fill-rule="nonzero"/></svg>
